static/logos/prismic-glyph-color.svg

<svg width="50" height="50" viewBox="0 0 50 50" fill="none" xmlns="http://www.w3.org/2000/svg">
<g clip-path="url(#clip0_1_1494)">
<path fill-rule="evenodd" clip-rule="evenodd" d="M48.6689 25.6632L45.0333 22.0196C44.7451 21.7308 44.5833 21.3394 44.5833 20.9314V16.4717C44.5833 12.3513 44.1553 10.8571 43.3513 9.35072C42.5475 7.84434 41.3677 6.66212 39.8647 5.8565C38.3615 5.05088 36.8705 4.62184 32.7589 4.62184H26.8785C26.7083 4.62184 26.5703 4.4839 26.5703 4.31372C26.5703 4.23212 26.6027 4.15386 26.6603 4.09608L30.2961 0.45241C30.5851 0.16277 30.9775 0 31.3867 0H33.4293C38.9115 0 40.8995 0.572034 42.9037 1.6462C44.9079 2.72036 46.4807 4.29664 47.5525 6.30516C48.6245 8.31366 49.1953 10.3059 49.1953 15.7999V25.4454C49.1953 25.6156 49.0573 25.7536 48.8871 25.7536C48.8053 25.7536 48.7267 25.721 48.6689 25.6632Z" fill="#E44E31"/>
<path fill-rule="evenodd" clip-rule="evenodd" d="M23.5822 48.7746L27.218 45.1308C27.507 44.8412 27.8994 44.6784 28.3086 44.6784H32.7554C36.867 44.6784 38.358 44.2494 39.861 43.4438C41.3642 42.6382 42.5438 41.456 43.3478 39.9496C44.1516 38.4432 44.5798 36.949 44.5798 32.8286V26.936C44.5798 26.7658 44.7178 26.628 44.8878 26.628C44.9698 26.628 45.0482 26.6604 45.106 26.7184L48.7416 30.3618C49.0298 30.6506 49.1916 31.042 49.1916 31.45V33.5004C49.1916 38.9944 48.6208 40.9866 47.549 42.9952C46.4772 45.0036 44.9042 46.58 42.9 47.6542C40.8958 48.7282 38.908 49.3004 33.4258 49.3004H23.8002C23.63 49.3004 23.4922 49.1624 23.4922 48.9922C23.4922 48.9106 23.5246 48.8324 23.5822 48.7746Z" fill="#F6C33B"/>
<path fill-rule="evenodd" clip-rule="evenodd" d="M0.526234 23.6372L4.16184 27.2808C4.45006 27.5696 4.61192 27.961 4.61192 28.369V32.8286C4.61192 36.9492 5.04002 38.4432 5.8439 39.9496C6.6478 41.456 7.82746 42.6382 9.3306 43.4438C10.8338 44.2496 12.3247 44.6786 16.4363 44.6786H22.3168C22.487 44.6786 22.625 44.8164 22.625 44.9866C22.625 45.0682 22.5926 45.1466 22.535 45.2042L18.8991 48.848C18.6101 49.1376 18.2177 49.3004 17.8085 49.3004H15.7659C10.2837 49.3004 8.29578 48.7284 6.2916 47.6542C4.2874 46.58 2.7145 45.0038 1.64266 42.9952C0.570804 40.9868 0 38.9944 0 33.5006V23.855C0 23.6848 0.137952 23.5468 0.308124 23.5468C0.389958 23.5468 0.46843 23.5794 0.526234 23.6372Z" fill="#7387EF"/>
<path fill-rule="evenodd" clip-rule="evenodd" d="M25.6096 0.525766L21.9736 4.16944C21.6846 4.45908 21.2924 4.62186 20.8832 4.62186H16.4363C12.3247 4.62186 10.8337 5.05088 9.3306 5.8565C7.82746 6.66212 6.6478 7.84434 5.8439 9.35072C5.04002 10.8571 4.61192 12.3513 4.61192 16.4718V22.3642C4.61192 22.5344 4.47396 22.6724 4.30378 22.6724C4.22196 22.6724 4.14348 22.6398 4.08568 22.582L0.450064 18.9385C0.16186 18.6496 0 18.2583 0 17.8502V15.7999C0 10.3059 0.570804 8.31368 1.64266 6.30516C2.7145 4.29666 4.2874 2.72036 6.2916 1.6462C8.29578 0.572036 10.2837 0 15.7659 0H25.3914C25.5616 0 25.6996 0.137952 25.6996 0.308124C25.6996 0.389728 25.6672 0.468 25.6096 0.525766Z" fill="#D776EB"/>
<path fill-rule="evenodd" clip-rule="evenodd" d="M40.9821 17.9882L36.0245 13.2398C35.6965 12.9112 35.3129 12.6723 34.9041 12.5232C34.5661 12.3951 34.1997 12.325 33.8169 12.325H19.1831C19.013 12.325 18.875 12.187 18.875 12.0168C18.875 11.9352 18.9074 11.8569 18.9651 11.7991L22.6043 8.15506C22.8933 7.8657 23.2855 7.70312 23.6945 7.70312H35.3541C38.7503 7.70312 41.5033 10.4621 41.5033 13.8656V17.7657C41.5033 17.9358 41.3655 18.0738 41.1953 18.0738C41.1159 18.0738 41.0395 18.0431 40.9821 17.9882Z" fill="#E44E31"/>
<path fill-rule="evenodd" clip-rule="evenodd" d="M31.2414 41.0798L35.9811 36.1098C36.3091 35.7812 36.5474 35.3968 36.6962 34.987C36.824 34.6482 36.8939 34.281 36.8939 33.8974V19.2329C36.8939 19.0627 37.0319 18.9248 37.2021 18.9248C37.2839 18.9248 37.3624 18.9574 37.4202 19.0154L41.0562 22.6622C41.3442 22.951 41.5058 23.3422 41.5058 23.75V35.438C41.5058 38.8416 38.7528 41.6006 35.3566 41.6006H31.4644C31.2942 41.6006 31.1562 41.4626 31.1562 41.2924C31.1562 41.2132 31.1866 41.137 31.2414 41.0798Z" fill="#F6C33B"/>
<path fill-rule="evenodd" clip-rule="evenodd" d="M8.20876 31.3122L13.1665 36.0606C13.4944 36.3892 13.878 36.628 14.2868 36.7772C14.6248 36.9052 14.9912 36.9754 15.374 36.9754H30.0077C30.1779 36.9754 30.3159 37.1134 30.3159 37.2836C30.3159 37.3652 30.2835 37.4434 30.2257 37.5012L26.5865 41.1452C26.2975 41.4346 25.9053 41.5972 25.4963 41.5972H13.8367C10.4406 41.5972 7.6875 38.8382 7.6875 35.4348V31.5346C7.6875 31.3646 7.82546 31.2266 7.99564 31.2266C8.07506 31.2266 8.1514 31.2572 8.20876 31.3122Z" fill="#7387EF"/>
<path fill-rule="evenodd" clip-rule="evenodd" d="M17.952 8.22388L13.2123 13.1939C12.8844 13.5225 12.646 13.9069 12.4972 14.3166C12.3694 14.6554 12.2994 15.0226 12.2994 15.4062V30.0708C12.2994 30.241 12.1615 30.3788 11.9913 30.3788C11.9094 30.3788 11.8309 30.3462 11.7731 30.2882L8.13712 26.6414C7.84918 26.3526 7.6875 25.9614 7.6875 25.5536V13.8656C7.6875 10.4621 10.4406 7.70312 13.8367 7.70312H17.729C17.8992 7.70312 18.0371 7.84106 18.0371 8.01124C18.0371 8.09044 18.0066 8.16658 17.952 8.22388Z" fill="#D776EB"/>
</g>
<defs>
<clipPath id="clip0_1_1494">
<rect width="50" height="50" fill="white"/>
</clipPath>
</defs>
</svg>

<svg xmlns="http://www.w3.org/2000/svg" width="64" height="64" fill="none" viewBox="0 0 50 50"><g fill-rule="evenodd" clip-path="url(#a)" clip-rule="evenodd"><path fill="#E44E31" d="m48.669 25.663-3.636-3.643a1.54 1.54 0 0 1-.45-1.089v-4.46c0-4.12-.428-5.614-1.232-7.12a8.39 8.39 0 0 0-3.486-3.495c-1.504-.805-2.995-1.234-7.106-1.234h-5.88a.308.308 0 0 1-.219-.526L30.296.452A1.54 1.54 0 0 1 31.386 0h2.043c5.482 0 7.47.572 9.475 1.646a11.186 11.186 0 0 1 4.648 4.66c1.072 2.008 1.643 4 1.643 9.494v9.645a.308.308 0 0 1-.526.218Z"/><path fill="#F6C33B" d="m23.582 48.775 3.636-3.644a1.54 1.54 0 0 1 1.09-.453h4.447c4.112 0 5.603-.429 7.106-1.234a8.39 8.39 0 0 0 3.487-3.494c.804-1.507 1.232-3.001 1.232-7.121v-5.893a.308.308 0 0 1 .526-.218l3.636 3.644c.288.289.45.68.45 1.088v2.05c0 5.494-.571 7.487-1.643 9.495a11.188 11.188 0 0 1-4.649 4.66c-2.004 1.073-3.992 1.645-9.474 1.645H23.8a.308.308 0 0 1-.218-.525Z"/><path fill="#7387EF" d="m.526 23.637 3.636 3.644c.288.289.45.68.45 1.088v4.46c0 4.12.428 5.614 1.232 7.12a8.39 8.39 0 0 0 3.487 3.495c1.503.806 2.994 1.235 7.105 1.235h5.88a.308.308 0 0 1 .219.525l-3.636 3.644a1.54 1.54 0 0 1-1.09.452h-2.043c-5.482 0-7.47-.572-9.474-1.646a11.187 11.187 0 0 1-4.65-4.659C.572 40.987 0 38.995 0 33.501v-9.646a.308.308 0 0 1 .526-.218Z"/><path fill="#D776EB" d="m25.61.526-3.636 3.643a1.54 1.54 0 0 1-1.09.453h-4.448c-4.111 0-5.602.429-7.105 1.234a8.39 8.39 0 0 0-3.487 3.495c-.804 1.506-1.232 3-1.232 7.12v5.893a.308.308 0 0 1-.526.218L.45 18.939A1.54 1.54 0 0 1 0 17.85V15.8c0-5.494.57-7.486 1.643-9.495a11.187 11.187 0 0 1 4.649-4.659C8.296.572 10.284 0 15.766 0h9.625a.308.308 0 0 1 .219.526Z"/><path fill="#E44E31" d="m40.982 17.988-4.957-4.748a3.063 3.063 0 0 0-1.12-.717 3.061 3.061 0 0 0-1.088-.198H19.183a.308.308 0 0 1-.218-.526l3.64-3.644a1.54 1.54 0 0 1 1.09-.452h11.66c3.395 0 6.148 2.76 6.148 6.163v3.9a.308.308 0 0 1-.52.222Z"/><path fill="#F6C33B" d="m31.241 41.08 4.74-4.97c.328-.329.566-.713.715-1.123a3.08 3.08 0 0 0 .198-1.09V19.233a.308.308 0 0 1 .526-.218l3.636 3.647c.288.289.45.68.45 1.088v11.688c0 3.404-2.753 6.163-6.15 6.163h-3.892a.308.308 0 0 1-.223-.521Z"/><path fill="#7387EF" d="m8.209 31.312 4.957 4.749c.328.328.712.567 1.12.716.339.128.705.198 1.088.198h14.634a.308.308 0 0 1 .218.526l-3.64 3.644a1.54 1.54 0 0 1-1.09.452h-11.66c-3.395 0-6.149-2.759-6.149-6.162v-3.9a.308.308 0 0 1 .522-.223Z"/><path fill="#D776EB" d="m17.952 8.224-4.74 4.97a3.07 3.07 0 0 0-.715 1.123 3.08 3.08 0 0 0-.198 1.09V30.07a.308.308 0 0 1-.526.217l-3.636-3.647a1.54 1.54 0 0 1-.45-1.087V13.866c0-3.404 2.754-6.163 6.15-6.163h3.892a.308.308 0 0 1 .223.52Z"/></g><defs><clipPath id="a"><path fill="#fff" d="M0 0h50v50H0z"/></clipPath></defs></svg>
